img/twitter-white.svg

<?xml version="1.0" encoding="UTF-8"?>
<svg width="32px" height="32px" viewBox="0 0 32 32" version="1.1" xmlns="http://www.w3.org/2000/svg" xmlns:xlink="http://www.w3.org/1999/xlink">
    <!-- Generator: Sketch 43.1 (39012) - http://www.bohemiancoding.com/sketch -->
    <title>twitter-white</title>
    <desc>Created with Sketch.</desc>
    <defs></defs>
    <g id="Page-1" stroke="none" stroke-width="1" fill="none" fill-rule="evenodd">
        <g id="twitter-white" fill="#FFFFFF">
            <path d="M31.9287591,6.16232287 C30.7539854,6.68243946 29.4915036,7.03396413 28.1664234,7.19206278 C29.5189489,6.38268161 30.5575474,5.10110314 31.0466569,3.57409865 C29.7810219,4.32343498 28.3790949,4.8676861 26.8870073,5.16103139 C25.6920292,3.89006278 23.9896058,3.09583857 22.1055766,3.09583857 C18.4878248,3.09583857 15.5548029,6.02381166 15.5548029,9.63524664 C15.5548029,10.1477848 15.6128467,10.6469148 15.7244964,11.1255247 C10.280292,10.8528161 5.45354745,8.24931839 2.22271533,4.29288789 C1.65886131,5.25873543 1.33582482,6.38209865 1.33582482,7.58054709 C1.33582482,9.84930942 2.49237956,11.8509596 4.2500438,13.0236413 C3.17617518,12.989713 2.16618978,12.6955516 1.28291971,12.2057489 C1.28245255,12.2330314 1.28245255,12.2604305 1.28245255,12.2879462 C1.28245255,15.4564484 3.54043796,18.0995874 6.53710949,18.7002691 C5.98738686,18.8497399 5.40870073,18.9296054 4.81121168,18.9296054 C4.38913869,18.9296054 3.97874453,18.8886816 3.57886131,18.8123139 C4.41237956,21.4104484 6.83153285,23.3011031 9.6979854,23.3539193 C7.45611679,25.1078117 4.63159124,26.1532915 1.56262774,26.1532915 C1.03392701,26.1532915 0.512467153,26.1223946 0,26.062 C2.89891971,27.9174439 6.34218978,29 10.0414599,29 C22.0902774,29 28.6790073,19.0352377 28.6790073,10.3935605 C28.6790073,10.110009 28.6727007,9.82797309 28.6600876,9.54756951 C29.939854,8.62556054 31.0505109,7.47374888 31.9287591,6.16232287" id="Fill-1"></path>
        </g>
    </g>
</svg>

<svg width="32" height="32" viewBox="0 0 32 32" xmlns="http://www.w3.org/2000/svg"><title>twitter-white</title><path d="M31.929 6.162c-1.175.52-2.437.872-3.763 1.03a6.561 6.561 0 0 0 2.88-3.618 13.132 13.132 0 0 1-4.159 1.587 6.547 6.547 0 0 0-4.781-2.065c-3.618 0-6.551 2.928-6.551 6.54 0 .512.058 1.01.17 1.49A18.607 18.607 0 0 1 2.222 4.293a6.5 6.5 0 0 0-.887 3.288 6.534 6.534 0 0 0 2.914 5.443 6.533 6.533 0 0 1-2.967-.818v.082A6.546 6.546 0 0 0 6.536 18.7a6.57 6.57 0 0 1-2.958.112 6.556 6.556 0 0 0 6.119 4.542 13.158 13.158 0 0 1-8.135 2.8c-.53 0-1.05-.032-1.563-.092A18.564 18.564 0 0 0 10.041 29c12.05 0 18.638-9.965 18.638-18.606 0-.284-.006-.566-.019-.846a13.301 13.301 0 0 0 3.269-3.386" fill="#FFF" fill-rule="evenodd"/></svg>
